X:1
T:Lied ohne Worte
T:Lied ohne Worte
T:für Violoncello und Klavier D-Dur, op. 109
T:Felix Mendelssohn Bartholdy (1809-1847)
C:Felix Mendelssohn Bartholdy
%%score 1 { 2 | 3 }
L:1/8
Q:1/4=68
M:4/4
K:D
V:1 bass nm="Violoncello" snm="Vc."
V:2 bass nm="Klavier" snm="Klav."
V:3 bass 
V:1
"^Andante" z8 |!p! (F2 D>).A, (A,3/2{C}B,/) A,2- | A,(DCD) (F2 E2) | (G2 E>)B, (B,3 A,/)B,/ | %4
 (.C.D.E.F) D4 |!pp! (F2 D>).A, A,3/2{C}B,/ A,2- |"_cresc." A,(DCD) (F2 ^E2) | (^G2 C>)D (C2- CF) | %8
"_dim." (.^E.F.^G.A) F4 || (F2 E>).^D D3 D |{F} E^DEF (F2 G>)B, | (G>F)(F>E)"_dim." (E2 =D2) | %12
 C>C(D>B,)!<(! A,4!<)! | (F2 D>).A, A,3/2{C}B,/ A,2- | A,!<(!(DCD)!<)! (F2 E2-) | %15
 E!p!(DCB,)!<(! (A,!<)!D!>(!G!>)!F) | (F3 E) D4 | (F2 E>^D) D3 D |{F} E^DEF (F2 G>)B, | %19
 ((G>F))((F>E)) (E2 =D2) | C>C(D>B,)!<(! A,4!<)! | (F2 D>).A, A,3/2{C}B,/ A,2- | %22
 A,!<(!(DCD)!<)! (F2 E2-) | E!p!!p!((DCB,))!<(! A,!<)!D!>(!G!>)!F | (F3 E) D4 || %25
[K:F] z"_agitato" vA,/D/ (FE/).D/ (D{ED}^C/).D/ (EA,) | %26
 z A,/D/ (F"_cresc."E/).D/ (D{ED}^C/).D/ (EA,) | z vA,/A,/ (B,{CB,}A,/).B,/ (DC/)B,/ A,2- | %28
 A,"_dim."(G,F,G,) (F,2 E,2) | z A,/D/ (FE/).D/ (D{ED}^C/).D/ (EA,) | %30
 z"_cresc." D/F/ (AG/).F/ (F{GF}E/).^G/ (=BE-) | E E2 E- E^G/A/!f! =BE- | %32
"^cresc." E E2 E- E^G/A/ =BE- | E"_dim." E2 D2!>(! (CB,D)!>)! | %34
!p! (A,2 ^G,2) z E,/A,/"^cresc." (C=B,/).A,/ | EA,/=B,/ (CB,/).A,/ A2!ff! (_E,,2 | %36
 D,,4) z vD,/G,/ (B,A,/).G,/ | ^CC/C/ (D{ED}C/).D/ (FE) (v_D,,2 | C,,4) z2 (vF,,2 | %39
 E,,4) z ^C/E/ (A2 | AuG/).F/ (EF/).D/ ^CC/E/ (A2 | AuG/)F/ .E/(E/F/D/) ^C!f!C/E/ A2- | %42
 A^C/E/ A3[K:treble]"_dim." ^c/e/ a2- | a2 a4!pp! a2- | !fermata!a4[K:bass]!pp! (B,2 G,>).D, | %45
 (C,3/2{E,}D,/"_rit." C,2) (C,2 A,,>).F,, | (D,,3/2{F,,}E,,/)!<(! D,,6!<)! | %47
 ^C,,E,,A,,^C, E,A,(^CG) ||[K:D]"_a tempo" (F2 D>).A, (A,3/2{C}B,/) A,2- | A,(DCD) (F2 E2) | %50
 (G2 E>).B, (B,3 A,/)B,/ | (.C.D.E.F) D4 | (=C2"_cresc." B,>).A, (A,B, ^G,2) | %53
 (D2"_cresc." ^C>).B, (B,C ^A,2) | E2!p! E>E"_dolce" (A2 GB,) | (D2 E>).F (E2 D)A, | %56
"_cresc." =CCB,A, (A,>B,) ^G,B, | DD"_cresc."CB, (B,>C) ^A,C/D/ |!f! E2 E>E ^A3 C/D/ | E2 E>E ^A4 | %60
"_dim."!<(!!>(! E6!<)!!>)! vE>.E |"_dolce" (A2 GB,) D2 (E>F) | D4 z2 (!>!vC>D) | D4 z2 (C,>=C,) | %64
 =C,4 B,,2 G,,2 | D,,A,,D,F,!pp! A,DFA | !fermata!d8 |] %67
V:2
!p!"^Andante" z [F,A,]/[F,A,]/ ([F,A,]D) z [F,A,]/[F,A,]/ ([F,A,]D) | %1
 z [F,A,]/[F,A,]/ ([F,A,]D) z [F,A,]/[F,A,]/ ([F,A,]D) | %2
 z [F,A,]/[F,A,]/ ([F,A,]D) z [G,B,]/[G,B,]/ ([G,B,]E) | %3
 z [G,B,]/[G,B,]/ ([G,B,]E) z [E,G,]/[E,G,]/ ([E,G,]E) | %4
 z [E,G,]/[E,G,]/ ([E,G,][A,C]) z [F,A,]/[F,A,]/ ([F,A,]D) | %5
!pp! z [F,A,]/[F,A,]/ ([F,A,]D) z [F,A,]/[F,A,]/ ([F,A,]D) | %6
 z [F,B,]/[F,B,]/ ([F,B,]F) z [^G,B,]/[G,B,]/ ([G,B,]C) | %7
 z [^G,B,C]/[G,B,C]/ ([G,B,C][C^E^G]) z [A,C]/[A,C]/ [A,C][A,C] | %8
 [^G,B,C][F,B,C][^E,B,C][E,B,C] z [F,A,C]/[F,A,C]/ ([F,A,C]F) || %9
 z [F,A,=C]/[F,A,C]/ ([F,A,C]F) z [F,A,B,]/[F,A,B,]/ ([F,A,B,]F) | %10
 [G,B,][F,A,B,]/[F,A,B,]/ [E,A,B,][^D,A,B,] z [D,A,B,]/[D,A,B,]/ ([E,G,B,]E) | %11
 z [E,G,B,]/[E,G,B,]/ z [F,A,^D]/[F,A,D]/ z [G,B,E]/[G,B,E]/ z [E,B,=D]/[E,B,D]/ | %12
 z [E,A,C]/[E,A,C]/ z [D,^G,B,]/[D,G,B,]/ z [=G,A,]/[G,A,]/ [G,A,]E | %13
 z [F,A,]/[F,A,]/ [F,A,][DF] z [F,A,]/[F,A,]/ [F,A,][DF] | %14
 z [F,^A,]/[F,A,]/ [F,A,][DF] z [A,C]/[A,C]/ [A,C]E | %15
 z [E,B,]/[E,B,]/ ([^G,B,][DE]) z [F,A,D][B,D][A,D] | %16
 [G,A,D]2 [G,A,C]2 z [F,A,]/[F,A,]/ ([F,A,]D) | %17
 z [F,A,=C]/[F,A,C]/ ([F,A,C]F) z [F,A,B,]/[F,A,B,]/ ([F,A,B,]F) | %18
 [G,B,][F,A,B,]/[F,A,B,]/ [E,A,B,][^D,A,B,] z [D,A,B,]/[D,A,B,]/ ([E,G,B,]E) | %19
 z [E,G,B,]/[E,G,B,]/ z [F,A,^D]/[F,A,D]/ z [G,B,E]/[G,B,E]/ z [E,B,=D]/[E,B,D]/ | %20
 z [E,A,C]/[E,A,C]/ z [D,^G,B,]/[D,G,B,]/ z [=G,A,]/[G,A,]/ ([G,A,]E) | %21
 z [F,A,]/[F,A,]/ ([F,A,][DF]) z [F,A,]/[F,A,]/ ([F,A,][DF]) | %22
 z [F,^A,]/[F,A,]/ ([F,A,][DF]) z [G,B,]/[G,B,]/ ([G,B,]E) | %23
 z [E,B,]/[E,B,]/ ([^G,B,][DE]) z [F,A,D][B,D][A,D] | %24
 [G,A,D]2 [G,A,C]2 z [F,A,]/[F,A,]/ ([F,A,]D) || %25
[K:F][K:treble] (6:4:6z/ (F,/A,/F/A,/F,/) (6:4:6z/ (F,/B,/F/B,/F,/) (6:4:6z/ (G,/B,/G/B,/G,/) (6:4:6z/ (G,/A,/^C/A,/G,/) | %26
 (6:4:6z/ F,/A,/F/A,/F,/ (6:4:6z/ F,/"_cresc."B,/F/B,/F,/ (6:4:6z/ G,/B,/G/B,/G,/ (6:4:6z/ G,/A,/^C/A,/G,/ | %27
 (6:4:6z/ F,/A,/F/A,/F,/ (6:4:6z/ F,/B,/F/B,/F,/ (6:4:6z/ G,/B,/G/B,/G,/ (6:4:6z/ A,/C/A/C/A,/ | %28
 (6:4:6z/ B,/"_dim."D/G/D/B,/ (6:4:6z/ G,/D/E/D/G,/ (6:4:6z/ A,/D/F/E/D/ (6:4:6^C/B,/A,/G,/F,/E,/ | %29
 (6:4:6z/ F,/A,/F/A,/F,/ (6:4:6z/ F,/B,/F/B,/F,/ (6:4:6z/ G,/B,/G/B,/G,/ (6:4:6z/ G,/A,/^C/A,/G,/ | %30
 (6:4:6z/ F,/A,/F/A,/F,/ (6:4:6z/ F,/A,/F/A,/F,/ (6:4:6z/ =B,/D/E/D/B,/ (6:4:6z/"_cresc." B,/D/E/D/B,/ | %31
 (6:4:6z/ C/E/F/E/C/ (6:4:6z/ D/E/^G/E/D/ (6:4:6z/ E/A/c/=B/A/ (6:4:6z/ =B,/D/E/D/B,/ | %32
!f! (6:4:6z/ C/E/F/E/C/ (6:4:6z/ D/E/^G/E/D/ (6:4:6z/ E/A/c/=B/A/ (6:4:6z/ =B,/D/E/D/B,/ | %33
 (6:4:6z/ C/E/F/E/C/"_dim." (6:4:6z/ D/F/G/F/D/ (6:4:6z/ E/G/A/G/E/ (6:4:6z/ F/A/B/A/F/ | %34
 (6:4:6z/ E/A/c/A/E/ (6:4:6D/F/E/D/C/=B,/[K:bass] (6:4:6z/ E,/C/E/C/E,/ (6:4:6z/ E,/C/E/C/E,/ | %35
 (6:4:6z/ E,/A,/E/A,/E,/ (6:4:6z/[K:treble] A,/C/E/C/A,/ (6:4:6z/ A,/C/A/C/A,/ (6:4:6z/ A,/D/G/D/A,/ | %36
 (6:4:6G/C/A,/^F/C/A,/ (6:4:6G/_E/D/A/E/D/ (6:4:6B/B,/D/G/D/B,/ (6:4:6z/ B,/D/G/D/B,/ | %37
 (6:4:6z/ G,/B,/G/B,/G,/ (6:4:6z/ G,/B,/F/B,/G,/ (6:4:6z/ G,/B,/E/B,/G,/ (6:4:6z/ G,/B,/E/B,/G,/ | %38
 z G/[GB]/ ([Bd][Ac]/)[GB]/ ([GB]A/)A/ (dA) | %39
 z =B/[Bd]/ ([df]e/).d/ (6:4:6^c/^C/E/A/E/C/ (6:4:6A,/C/F/!f!A/F/C/ | %40
 (6:4:6z/ D/F/G/F/D/!p! (6:4:6z/ D/E/^G/E/D/ (6:4:6z/ ^C/E/A/E/C/!f! (6:4:6A,/C/F/A/F/C/ | %41
 (6:4:6z/ D/F/G/F/D/ (6:4:6z/ D/E/^G/E/D/ (6:4:6z/ ^C/E/A/E/C/ A,!f![A,DF]/[A,DF]/ | %42
 [G,^CE] z z[K:bass]!f! [F,A,D]/[F,A,D]/ [E,G,C]"_dim." z z [D,F,B,]/[D,F,B,]/ | %43
 [^C,E,A,] z z [_E,A,C]/[E,A,C]/!p! [D,A,C] z z [G,A,C]/[G,A,C]/ | %44
 [^F,A,C] z !fermata!z2[K:treble] z [G,B,]/[G,B,]/ [G,B,D] z | %45
 z [G,B,C]/[G,B,C]/ [G,B,CG] z z"_rit." [A,C]/[A,C]/ [A,C] z | %46
 z [=B,FA]/[B,FA]/ [B,FA] z [B,E^G] z [_B,E=G] z | [A,EG] z z2 z4 || %48
[K:D][K:bass] z [F,A,]/[F,A,]/ ([F,A,]D) z [F,A,]/[F,A,]/ ([F,A,]D) | %49
 z [F,A,]/[F,A,]/ ([F,A,]D) z [F,A,]/[F,A,]/ ([F,A,]D) | %50
 z [G,B,]/[G,B,]/ ([G,B,]E) z [E,G,]/[E,G,]/ ([E,G,]C) | %51
 z [E,G,]/[E,G,]/ ([E,G,]C) z [F,A,]/[F,A,]/ ([F,A,]D) | %52
[K:treble] z [F,A,F]/[F,A,F]/ ([F,A,F]^D) z [F,A,D]/[F,A,D]/ ([^G,B,E]^G) | %53
 z [^G,B,^G]/[G,B,G]/ ([G,B,G]^E) z [G,B,E]/[G,B,E]/ ([^A,CF]^A) | %54
 z [_B,^C_B]/[B,CB]/ [B,CB]2!p! z [A,DA]/[A,DA]/ [G,=B,D][G,B,D] | %55
 z [F,A,D] z [G,A,C] z [G,A,C]/[G,A,C]/ [F,A,D][F,A,F] | %56
 z [F,A,F]/[F,A,F]/ ([F,A,F]^D) z [F,A,D]/[F,A,D]/ ([^G,B,E]^G) | %57
 z [^G,B,^G]/[G,B,G]/ ([G,B,G]^E) z [G,CE]/[G,CE]/ ([^A,CF]^A) | %58
 (6:4:6z/ B,/C/B/C/B,/ (6:4:6z/ B,/C/B/C/B,/ (6:4:6z/ ^A,/C/E/C/A,/ (6:4:6z/ A,/C/E/C/A,/ | %59
 (6:4:6z/ B,/C/B/C/B,/ (6:4:6z/ B,/C/B/C/B,/ (6:4:6z/ ^A,/C/E/C/A,/ (6:4:6z/ A,/C/E/C/A,/ | %60
 (6:4:6z/ _B,/C/_B/C/B,/ (6:4:6B/"^dim."C/B,/B/C/B,/ (6:4:6B/C/B,/B/C/B,/ (6:4:6A/C/A,/A/C/A,/ | %61
!p! z [A,D]/[A,D]/ z [G,B,]/[G,B,]/ z [F,A,D] z [G,A,C] | %62
[K:bass] z [F,A,]/[F,A,D]/ [F,A,F][F,A,E]/[F,A,D]/ [E,G,D][E,G,C]/[E,G,D]/ [E,G,E][E,G,A,] | %63
 z [F,A,]/[F,A,D]/ [F,A,F][F,A,E]/[F,A,D]/ [G,_B,D][G,B,C]/[G,B,D]/ [G,B,E][G,A,] | %64
 z [F,A,]/[F,A,D]/ [F,A,F][F,A,E]/[F,A,D]/ z G,/[G,B,]/ [G,B,D][G,B,]/[G,B,]/ | %65
 [F,A,]4!pp! [F,A,D]2 [F,A,D]2 | !fermata![F,A,D]8 |] %67
V:3
 [D,,D,]2 z2 [D,,D,]2 z2 | [D,,D,]2 z2 [D,,D,]2 z2 | [D,,D,]2 z2 [D,,D,]2 z2 | %3
 [D,,D,]2 z2 [C,,C,]2 z2 | [A,,,A,,]2 z2 [D,,D,]2 z2 | [D,,D,]2 z2 [D,,D,]2 z2 | %6
"^cresc." [D,,D,]2 z2 [C,,C,]2 z2 | [C,,C,]2 z2 [C,,C,]2 z2 |"^dim." [C,,C,]2 z2 [F,,,F,,]2 z2 || %9
 [F,,,F,,]2 z2 [B,,,B,,]2 z2 | [B,,,B,,]2 z2 E,,2 z2 | E,,2 F,,2 G,,2 [^G,,,^G,,]2 | %12
 [A,,,A,,]2 [B,,,B,,]2 [C,,C,]4 | [D,,D,]2 z2 [D,,D,]2 z2 | [D,,D,]2 z2 [G,,,G,,]2 z2 | %15
 [^G,,,^G,,]2 E,,2 [A,,,A,,]2 z2 | [A,,,A,,]2 [A,,,A,,]2 [D,,D,]2 z2 | %17
 [F,,,F,,]2 z2 [B,,,B,,]2 z2 | [B,,,B,,]2 z2 E,,2 z2 | E,,2 F,,2 G,,2 [^G,,,^G,,]2 | %20
 [A,,,A,,]2 [B,,,B,,]2 [C,,C,]4 | [D,,D,]2 z2 [D,,D,]2 z2 | [D,,D,]2 z2 [G,,,G,,]2 z2 | %23
 [^G,,,^G,,]2 E,,2 [A,,,A,,]2 z2 | [A,,,A,,]2 [A,,,A,,]2 [D,,D,]2 z2 || %25
[K:F] [D,,D,] z D, z E, z ^C,[A,,,A,,]/[A,,,A,,]/ | [D,,D,] z D, z E, z ^C,[A,,,A,,]/[A,,,A,,]/ | %27
 [D,,D,] z D, z E, z F,[F,,,F,,]/[F,,,F,,]/ | [B,,,B,,] z [B,,,B,,] z [B,,,B,,] z z2 | %29
 [D,,D,] z D, z E, z ^C,[A,,,A,,]/[A,,,A,,]/ | [D,,D,] z =B,, z ^G,, z G,,[^G,,,G,,]/[G,,,G,,]/ | %31
 [A,,,A,,]2 [=B,,,=B,,]2 [C,,C,]2 ^G,,[^G,,,G,,]/[G,,,G,,]/ | %32
 [A,,,A,,]2 [=B,,,=B,,]2 [C,,C,]2 ^G,,[^G,,,G,,]/[G,,,G,,]/ | %33
 ([A,,,A,,]2 [=B,,,=B,,]2 [C,,C,]2 [D,,D,]2) | %34
 [E,,E,] z E,E,,/E,,/ [A,,,A,,] z A,,[A,,,A,,]/[A,,,A,,]/ | %35
 C, z A,,[A,,,A,,]/[A,,,A,,]/ [C,,C,] z [_E,G,]2 | D,D,[B,,D,G,][A,,D,^F,] [G,,G,] z [F,,=F,] z | %37
 [E,,E,] z [D,,D,]G,,/G,,/ [^C,,^C,] z E, z | %38
 (6:4:6E,/G,/B,/E/B,/G,/ (6:4:6z/ G,/B,/E/B,/G,/ (6:4:6z/ A,/C/F/C/A,/ (6:4:6z/ A,/D/F/D/A,/ | %39
 (6:4:6z/ =B,/D/^G/D/B,/ (6:4:6z/ B,/D/G/D/B,/ A, z F,[F,,,F,,]/[F,,,F,,]/ | %40
 [B,,,B,,] z B,, z A,, z F,[F,,,F,,]/[F,,,F,,]/ | [B,,,B,,] z B,, z A,, z z [A,,,A,,]/[A,,,A,,]/ | %42
 [A,,,A,,] z z [A,,,A,,]/[A,,,A,,]/ [A,,,A,,] z z [A,,,A,,]/[A,,,A,,]/ | %43
 [G,,,G,,] z z [G,,,G,,]/[G,,,G,,]/ [^F,,,^F,,] z z _E,,/E,,/ | D,, z !fermata!z2!pp! G,, z z2 | %45
 E,, z z2 F,, z z2 | [D,,D,][F,A,]/[F,A,]/ [F,A,] z [E,^G,] z [E,=G,] z | [^C,,^C,] z z2 z4 || %48
[K:D]"^a tempo" [D,,D,]3 A,,/A,,/ [D,,D,]3 A,,/A,,/ | [D,,D,]4 [D,,D,]4 | [D,,D,]4 [C,,C,]4 | %51
 [A,,,A,,]4 [D,,D,]4 | [D,,D,]2 [^D,,^D,]"^cresc."[B,,,B,,] E,,4 | %53
 [E,,E,]2 [^E,,^E,][C,,C,] [F,,F,]4 | [G,,G,]4 [F,,,F,,]2 [G,,,G,,]2 | %55
 [A,,,A,,]2 [A,,,A,,]2 [A,,,A,,]2 D,,D,,/D,,/ | %56
 [D,,D,]2 [^D,,^D,]"^cresc."[B,,,B,,]/[B,,,B,,]/ [E,,E,]2 E,,[E,,E,]/[E,,E,]/ | %57
 [E,,E,]2 [^E,,^E,][C,,C,]/[C,,C,]/ [F,,F,]2 [F,,,F,,][F,,,F,,]/[F,,,F,,]/ | %58
!f! [G,,,G,,]2 [G,,,G,,]2 [F,,,F,,]C,/C,/ F,[F,,,F,,]/[F,,,F,,]/ | %59
 [G,,,G,,]2 [G,,,G,,]2 [F,,,F,,]C,/C,/ F,[F,,,F,,]/[F,,,F,,]/ | [G,,,G,,]6 z2 | %61
 [F,,,F,,]2 [G,,,G,,]2 [A,,,A,,]2 [A,,,A,,]2 | [D,,D,]4 [D,,D,]4 | [D,,D,]4 [D,,D,]4 | %64
 [D,,D,]4 [D,,D,]4 | [D,,D,]4 [D,,D,]2 [D,,D,]2 | !fermata![D,,A,,D,]8 |] %67

